<?xml version="1.0" encoding="UTF-8"?>
<map version="1.10" tiledversion="1.12.2" orientation="orthogonal" renderorder="right-down" width="30" height="20" tilewidth="16" tileheight="16" infinite="0" nextlayerid="2" nextobjectid="1">
 <editorsettings>
  <export target="world.json" format="json"/>
 </editorsettings>
 <tileset firstgid="1" source="ground.tsx"/>
 <layer id="1" name="Tile Layer 1" width="30" height="20">
  <properties>
   <property name="has_collision" type="bool" value="true"/>
   <property name="texture_name" value="Textures\tilemap.png"/>
  </properties>
  <data encoding="csv">
0,0,0,0,0,0,0,0,0,0,0,0,0,0,0,0,0,0,0,0,0,0,0,0,0,0,0,0,0,0,
0,0,0,0,0,0,0,0,0,0,0,0,0,0,0,0,0,0,0,0,0,0,0,0,0,0,0,0,0,0,
0,0,0,0,0,0,0,0,0,0,0,0,0,0,0,0,0,0,0,0,0,0,0,0,0,0,0,0,0,0,
0,0,0,0,0,0,0,0,0,0,0,0,0,0,0,0,0,0,0,0,0,0,0,0,0,0,0,0,0,0,
0,0,0,0,0,0,0,0,0,0,0,0,0,0,0,0,0,0,0,0,0,0,0,0,0,0,0,0,0,0,
0,0,0,0,0,0,0,0,0,0,0,0,0,0,0,0,0,0,0,0,0,0,0,0,0,0,0,0,0,0,
0,0,0,0,0,0,0,0,0,0,0,0,0,0,0,0,0,0,0,0,0,0,0,0,0,0,0,0,0,0,
0,0,0,0,0,0,0,0,0,0,0,0,0,0,0,0,0,0,0,0,0,0,0,0,0,0,0,0,0,0,
0,0,0,0,0,0,0,0,0,0,0,0,0,0,0,0,0,0,0,0,0,0,0,0,0,0,0,0,0,136,
0,0,0,0,0,0,0,0,0,0,0,0,0,0,0,0,0,0,0,0,0,0,0,0,0,0,0,3,4,5,
0,0,0,0,0,0,0,0,0,0,0,0,0,0,0,0,0,0,0,0,0,0,0,0,0,3,5,29,29,29,
0,0,0,0,0,0,0,0,0,0,0,0,0,0,0,0,0,0,0,0,0,3,4,5,0,52,29,29,29,29,
0,0,0,0,0,0,0,0,0,0,0,0,0,0,0,0,0,3,4,5,0,52,29,56,0,52,29,29,29,29,
0,0,0,0,0,0,0,0,0,0,0,0,0,3,4,5,0,52,29,56,0,52,29,56,0,52,29,29,29,29,
3,4,4,4,4,4,5,0,0,3,4,5,0,52,29,56,0,52,29,56,0,52,29,56,0,52,29,29,29,29,
52,29,29,29,29,29,56,0,26,29,29,56,0,52,29,56,0,52,29,56,0,52,29,56,0,52,29,29,29,29,
52,29,29,29,29,29,29,29,29,29,29,56,0,52,29,56,0,52,29,56,0,52,29,56,0,52,29,29,29,29,
52,29,29,29,29,29,29,29,29,29,29,56,0,52,29,56,0,52,29,56,0,52,29,56,0,52,29,29,29,29,
52,29,29,29,29,29,29,29,29,29,29,56,0,52,29,56,0,52,29,56,0,52,29,56,0,52,29,29,29,29,
77,104,104,104,104,104,29,29,29,29,29,81,0,77,29,81,0,77,29,81,0,77,29,81,0,77,29,29,29,29
</data>
 </layer>
</map>
